lib/svg/trashcan.svg

<svg xmlns="http://www.w3.org/2000/svg" width="12" height="16" viewBox="0 0 12 16"><path d="M11 2H9c0-.55-.45-1-1-1H5c-.55 0-1 .45-1 1H2c-.55 0-1 .45-1 1v1c0 .55.45 1 1 1v9c0 .55.45 1 1 1h7c.55 0 1-.45 1-1V5c.55 0 1-.45 1-1V3c0-.55-.45-1-1-1zm-1 12H3V5h1v8h1V5h1v8h1V5h1v8h1V5h1v9zm1-10H2V3h9v1z"/></svg>

<?xml version="1.0" encoding="UTF-8" standalone="no"?>
<svg width="12px" height="16px" viewBox="0 0 12 16" version="1.1" xmlns="http://www.w3.org/2000/svg" xmlns:xlink="http://www.w3.org/1999/xlink">
    <!-- Generator: Sketch 3.8.3 (29802) - http://www.bohemiancoding.com/sketch -->
    <title>trashcan</title>
    <desc>Created with Sketch.</desc>
    <defs></defs>
    <g id="Octicons" stroke="none" stroke-width="1" fill="none" fill-rule="evenodd">
        <g id="trashcan" fill="#000000">
            <path d="M11,2 L9,2 C9,1.45 8.55,1 8,1 L5,1 C4.45,1 4,1.45 4,2 L2,2 C1.45,2 1,2.45 1,3 L1,4 C1,4.55 1.45,5 2,5 L2,14 C2,14.55 2.45,15 3,15 L10,15 C10.55,15 11,14.55 11,14 L11,5 C11.55,5 12,4.55 12,4 L12,3 C12,2.45 11.55,2 11,2 L11,2 Z M10,14 L3,14 L3,5 L4,5 L4,13 L5,13 L5,5 L6,5 L6,13 L7,13 L7,5 L8,5 L8,13 L9,13 L9,5 L10,5 L10,14 L10,14 Z M11,4 L2,4 L2,3 L11,3 L11,4 L11,4 Z" id="Shape"></path>
        </g>
    </g>
</svg>
